Origami/24x24/apps/openshot.svg

<svg width="24" height="24" version="1.1" viewBox="0 0 24 24" xmlns="http://www.w3.org/2000/svg">
 <path d="m12 2.5a10 10 0 0 0 -10 10 10 10 0 0 0 10 10 10 10 0 0 0 10 -10 10 10 0 0 0 -10 -10z" style="opacity:.2"/>
 <path d="M 12,2 C 6.4771525,2 2,6.4771525 2,12 c 0,4.299171 2.7129724,7.964695 6.520301,9.377953 1.083682,0.402256 2.094298,-1.183883 3.317974,-1.183883 5.522847,0 9.245283,-2.617314 9.245283,-8.140162 0,-4.454492 -2.157826,-7.2314194 -6.182447,-8.5249276 C 14.750168,3.4804677 14.759386,2.3842313 14.60541,2.3427923 13.774731,2.1192353 12.90129,2 12,2 Z" style="fill:#3168b2"/>
 <path d="M 14.536133,2.8330078 C 12.92125,3.7455033 8.6662645,6.368207 9,8.6777345 c 0.4618225,3.1959165 6.803134,2.6551765 7,5.1562505 0.239872,3.047443 -4.170818,6.113656 -7.0908205,7.664062 C 9.9067019,21.826633 10.94976,21.996027 12,22 c 5.40626,-0.0035 9.830872,-4.303091 9.989258,-9.707031 C 21.89512,7.8294633 18.853669,3.9690671 14.536133,2.8330078 Z" style="opacity:.2"/>
 <path d="M 14.536133,2.3330078 C 12.92125,3.2455033 8.6662645,5.868207 9,8.1777345 c 0.4618225,3.1959165 6.803134,2.6551765 7,5.1562505 0.255576,3.246948 -4.866216,6.538343 -7.663086,7.968749 C 9.5034264,21.762766 10.746054,21.999299 12,22 17.522847,22 22,17.522847 22,12 21.997244,7.4561705 18.931406,3.4853828 14.536133,2.3330078 Z" style="fill:#e4e4e4"/>
 <path d="m4.0117188 6.5c-0.389202 0.517332-0.7274969 1.0737077-1.0117188 1.6621094v0.3378906h-0.1621094c-0.1247461 0.2852705-0.2358312 0.5765824-0.3339844 0.875-0.0095729 0.0336318-0.0222432 0.0964289-0.03125 0.125h1.5273438v6h-1.5371094c0.00372 0.01166 0.00985 0.03824 0.013672 0.05078 0.1041317 0.324873 0.2296942 0.639788 0.3652343 0.94922h0.1582031v0.355469c0.2829493 0.582849 0.6235685 1.131678 1.0097656 1.644531h1.9902344 5 2 5 1.988281a10 10 0 0 0 0.65625 -1h-0.644531v-1h1v0.337891a10 10 0 0 0 0.527344 -1.337891h-1.527344v-6h1.537109a10 10 0 0 0 -0.537109 -1.3261719v0.3261719h-1v-1h0.646484a10 10 0 0 0 -0.666015 -1h-15.96875zm-0.0117188 1h1v1h-1v-1zm2 0h1v1h-1v-1zm2 0h1v1h-1v-1zm2 0h1v1h-1v-1zm2 0h1v1h-1v-1zm2 0h1v1h-1v-1zm2 0h1v1h-1v-1zm2 0h1v1h-1v-1zm-12 2h5v6h-5v-6zm7 0h5v6h-5v-6zm-9 7h1v1h-1v-1zm2 0h1v1h-1v-1zm2 0h1v1h-1v-1zm2 0h1v1h-1v-1zm2 0h1v1h-1v-1zm2 0h1v1h-1v-1zm2 0h1v1h-1v-1zm2 0h1v1h-1v-1z" style="opacity:.2"/>
 <path d="m4.0117188 6c-0.389202 0.517332-0.7274969 1.0737077-1.0117188 1.6621094v0.3378906h-0.1621094c-0.1247461 0.2852705-0.2358312 0.5765824-0.3339844 0.875-0.0095729 0.0336318-0.0222432 0.0964289-0.03125 0.125h1.5273438v6h-1.5371094c0.0037152 0.011659 0.0098515 0.038243 0.0136719 0.050781 0.1041318 0.324872 0.2296943 0.639787 0.3652344 0.949219h0.1582031v0.355469c0.2829493 0.582849 0.6235685 1.131678 1.0097656 1.644531h1.9902344 5 2 5 1.988281a10 10 0 0 0 0.65625 -1h-0.644531v-1h1v0.337891a10 10 0 0 0 0.527344 -1.337891h-1.527344v-6h1.537109a10 10 0 0 0 -0.537109 -1.3261719v0.3261719h-1v-1h0.646484a10 10 0 0 0 -0.666015 -1h-15.96875zm-0.0117188 1h1v1h-1v-1zm2 0h1v1h-1v-1zm2 0h1v1h-1v-1zm2 0h1v1h-1v-1zm2 0h1v1h-1v-1zm2 0h1v1h-1v-1zm2 0h1v1h-1v-1zm2 0h1v1h-1v-1zm-12 2h5v6h-5v-6zm7 0h5v6h-5v-6zm-9 7h1v1h-1v-1zm2 0h1v1h-1v-1zm2 0h1v1h-1v-1zm2 0h1v1h-1v-1zm2 0h1v1h-1v-1zm2 0h1v1h-1v-1zm2 0h1v1h-1v-1zm2 0h1v1h-1v-1z" style="fill:#3c3c3c"/>
 <path d="M 12,2 A 10,10 0 0 0 2.0705,10.926 10,9.5 0 0 1 12,2.5 10,9.5 0 0 1 21.961,11.2235 10,10 0 0 0 12,2 Z m 9.961,9.2235 A 10,10 0 0 1 22,12 10,9.5 0 0 0 21.961,11.2235 Z M 2.0705,10.926 A 10,9.5 0 0 0 2.0461,11.122 10,10 0 0 1 2.0705,10.926 Z M 2.0461,11.122 A 10,10 0 0 0 2.0002,12 10,9.5 0 0 1 2.0461,11.122 Z" style="fill:#ffffff;opacity:.1"/>
</svg>

<svg xmlns="http://www.w3.org/2000/svg" width="24" height="24" version="1.1" viewBox="0 0 24 24">
 <path style="opacity:0.2" d="m 12,2.5 a 10,10 0 0 0 -10,10 10,10 0 0 0 10,10 10,10 0 0 0 10,-10 10,10 0 0 0 -10,-10 z"/>
 <path d="M 12,2 C 6.4771525,2 2,6.4771525 2,12 c 0,4.299171 2.7129724,7.964695 6.520301,9.377953 1.083682,0.402256 2.094298,-1.183883 3.317974,-1.183883 5.522847,0 9.245283,-2.617314 9.245283,-8.140162 0,-4.454492 -2.157826,-7.2314194 -6.182447,-8.5249276 C 14.750168,3.4804677 14.759386,2.3842313 14.60541,2.3427923 13.774731,2.1192353 12.90129,2 12,2 Z" style="fill:#3168b2"/>
 <path style="opacity:0.2" d="M 14.536133,2.8330078 C 12.92125,3.7455033 8.6662645,6.368207 9,8.6777345 c 0.4618225,3.1959165 6.803134,2.6551765 7,5.1562505 0.239872,3.047443 -4.170818,6.113656 -7.0908205,7.664062 C 9.9067019,21.826633 10.94976,21.996027 12,22 c 5.40626,-0.0035 9.830872,-4.303091 9.989258,-9.707031 C 21.89512,7.8294633 18.853669,3.9690671 14.536133,2.8330078 Z"/>
 <path style="fill:#cccccc" d="M 14.536133,2.3330078 C 12.92125,3.2455033 8.6662645,5.868207 9,8.1777345 c 0.4618225,3.1959165 6.803134,2.6551765 7,5.1562505 0.255576,3.246948 -4.866216,6.538343 -7.663086,7.968749 C 9.5034264,21.762766 10.746054,21.999299 12,22 17.522847,22 22,17.522847 22,12 21.997244,7.4561705 18.931406,3.4853828 14.536133,2.3330078 Z"/>
 <path d="M 4.0117188,6.5 C 3.6225168,7.017332 3.2842219,7.5737077 3,8.1621094 L 3,8.5 2.8378906,8.5 C 2.7131445,8.7852705 2.6020594,9.0765824 2.5039062,9.375 2.4943333,9.4086318 2.481663,9.4714289 2.4726562,9.5 L 4,9.5 l 0,6 -1.5371094,0 c 0.00372,0.01166 0.00985,0.03824 0.013672,0.05078 0.1041317,0.324873 0.2296942,0.639788 0.3652343,0.94922 L 3,16.5 3,16.855469 C 3.2829493,17.438318 3.6235685,17.987147 4.0097656,18.5 L 6,18.5 l 5,0 2,0 5,0 1.988281,0 a 10,10 0 0 0 0.65625,-1 L 20,17.5 l 0,-1 1,0 0,0.337891 A 10,10 0 0 0 21.527344,15.5 L 20,15.5 l 0,-6 1.537109,0 A 10,10 0 0 0 21,8.1738281 L 21,8.5 l -1,0 0,-1 0.646484,0 a 10,10 0 0 0 -0.666015,-1 L 4.0117188,6.5 Z M 4,7.5 l 1,0 0,1 -1,0 0,-1 z m 2,0 1,0 0,1 -1,0 0,-1 z m 2,0 1,0 0,1 -1,0 0,-1 z m 2,0 1,0 0,1 -1,0 0,-1 z m 2,0 1,0 0,1 -1,0 0,-1 z m 2,0 1,0 0,1 -1,0 0,-1 z m 2,0 1,0 0,1 -1,0 0,-1 z m 2,0 1,0 0,1 -1,0 0,-1 z m -12,2 5,0 0,6 -5,0 0,-6 z m 7,0 5,0 0,6 -5,0 0,-6 z m -9,7 1,0 0,1 -1,0 0,-1 z m 2,0 1,0 0,1 -1,0 0,-1 z m 2,0 1,0 0,1 -1,0 0,-1 z m 2,0 1,0 0,1 -1,0 0,-1 z m 2,0 1,0 0,1 -1,0 0,-1 z m 2,0 1,0 0,1 -1,0 0,-1 z m 2,0 1,0 0,1 -1,0 0,-1 z m 2,0 1,0 0,1 -1,0 0,-1 z" style="opacity:0.2"/>
 <path style="fill:#3c3c3c" d="M 4.0117188 6 C 3.6225168 6.517332 3.2842219 7.0737077 3 7.6621094 L 3 8 L 2.8378906 8 C 2.7131445 8.2852705 2.6020594 8.5765824 2.5039062 8.875 C 2.4943333 8.9086318 2.481663 8.9714289 2.4726562 9 L 4 9 L 4 15 L 2.4628906 15 C 2.4666058 15.011659 2.4727421 15.038243 2.4765625 15.050781 C 2.5806943 15.375653 2.7062568 15.690568 2.8417969 16 L 3 16 L 3 16.355469 C 3.2829493 16.938318 3.6235685 17.487147 4.0097656 18 L 6 18 L 11 18 L 13 18 L 18 18 L 19.988281 18 A 10 10 0 0 0 20.644531 17 L 20 17 L 20 16 L 21 16 L 21 16.337891 A 10 10 0 0 0 21.527344 15 L 20 15 L 20 9 L 21.537109 9 A 10 10 0 0 0 21 7.6738281 L 21 8 L 20 8 L 20 7 L 20.646484 7 A 10 10 0 0 0 19.980469 6 L 4.0117188 6 z M 4 7 L 5 7 L 5 8 L 4 8 L 4 7 z M 6 7 L 7 7 L 7 8 L 6 8 L 6 7 z M 8 7 L 9 7 L 9 8 L 8 8 L 8 7 z M 10 7 L 11 7 L 11 8 L 10 8 L 10 7 z M 12 7 L 13 7 L 13 8 L 12 8 L 12 7 z M 14 7 L 15 7 L 15 8 L 14 8 L 14 7 z M 16 7 L 17 7 L 17 8 L 16 8 L 16 7 z M 18 7 L 19 7 L 19 8 L 18 8 L 18 7 z M 6 9 L 11 9 L 11 15 L 6 15 L 6 9 z M 13 9 L 18 9 L 18 15 L 13 15 L 13 9 z M 4 16 L 5 16 L 5 17 L 4 17 L 4 16 z M 6 16 L 7 16 L 7 17 L 6 17 L 6 16 z M 8 16 L 9 16 L 9 17 L 8 17 L 8 16 z M 10 16 L 11 16 L 11 17 L 10 17 L 10 16 z M 12 16 L 13 16 L 13 17 L 12 17 L 12 16 z M 14 16 L 15 16 L 15 17 L 14 17 L 14 16 z M 16 16 L 17 16 L 17 17 L 16 17 L 16 16 z M 18 16 L 19 16 L 19 17 L 18 17 L 18 16 z"/>
 <path style="opacity:0.1;fill:#ffffff" d="M 12,2 A 10,10 0 0 0 2.0705,10.926 10,9.5 0 0 1 12,2.5 10,9.5 0 0 1 21.961,11.2235 10,10 0 0 0 12,2 Z m 9.961,9.2235 A 10,10 0 0 1 22,12 10,9.5 0 0 0 21.961,11.2235 Z M 2.0705,10.926 A 10,9.5 0 0 0 2.0461,11.122 10,10 0 0 1 2.0705,10.926 Z M 2.0461,11.122 A 10,10 0 0 0 2.0002,12 10,9.5 0 0 1 2.0461,11.122 Z"/>
</svg>
